packages/icons/src/SVG/bar-chart.svg

<!-- Generated by IcoMoon.io -->
<svg version="1.1" xmlns="http://www.w3.org/2000/svg" width="12" height="12" viewBox="0 0 12 12">
<title>bar-chart</title>
<path d="M6 1h1v9h1v-3h1v3h1v-6h1v7h-11v-5h1v4h1v-2h1v2h1v-5h1v5h1v-9z"></path>
</svg>

<svg width="12" height="12" viewBox="0 0 12 12" fill="none" xmlns="http://www.w3.org/2000/svg">
<path d="M6 1H7V10H8V7H9V10H10V4H11V11H0V6H1V10H2V8H3V10H4V5H5V10H6V1Z" fill="#4C505B"/>
</svg>
